!!!!SEGMENT: pl-sa--28-a-i-28--002_hasse-johann-adolf--leucippo-aria-2.krn
!!!cenid: 17xx:379
!!!COM: Hasse, Johann Adolf
!!!COM-rismID: pe51928
!!!CDT: 1699/03/25-1783/12/16
!!!CNT: German
!!!OTL: Leucippo - Aria 2
!!!PDT:
!!!AGN: Sacred
!!!SMS-siglum: PL-SA
!!!SMS-shelfmark: 28/A I 28
!!!SMS-shelfwork: 002 W
!!!SMS-variant: Fundamento: PL-SA 28/A I 28:19,21
!!!SMS-altvar: Fundamento: PL-SA 28/A I 28:23
!!!NIFC-rismSourceID: 1001039719
!!!NIFC-rismChildID: 1001039719
!!!NIFC-islandoraID: none
!!!URL-pdf-islandora:
!!!URL-scan: https://bc.bdsandomierz.pl/dlibra/publication/1261/edition/1229/content @EN{Scan in the Sandomierz Diocese Digital Library} @PL{Skany w portalu Cyfrowa Biblioteka Diecezjalna w Sandomierzu}
!!!ONB-nifc:
!!!AIN: 1 empty 1 viola 2 violn 1 vox
!!!key:
**kern	**dynam	**kern	**dynam	**kern	**dynam	**kern	**dynam	**kern	**text
*part5	*part5	*part4	*part4	*part3	*part3	*part2	*part2	*part1	*part1
*staff5	*	*staff4	*	*staff3	*	*staff2	*	*staff1	*staff1
*Iempty	*	*Iviola	*	*Ivioln	*	*Ivioln	*	*Ivox	*
*I"Fundamento	*	*I"Alto Viola	*	*I"Violino Secundo	*	*I"Violino Primo	*	*I"Canto	*
*I'org	*	*I'vla	*	*I'vl II	*	*I'vl I	*	*I'C	*
*clefF4	*	*clefC3	*	*clefG2	*	*clefG2	*	*clefC1	*
*k[c#f#g#]	*	*k[c#f#g#]	*	*k[c#f#g#]	*	*k[f#c#g#]	*	*k[f#c#g#]	*
*A:	*	*A:	*	*A:	*	*A:	*	*A:	*
*M3/8	*	*M3/8	*	*M3/8	*	*M3/8	*	*M3/8	*
*	*	*	*	*	*	*	*below	*	*
=1	=1	=1	=1	=1	=1	=1	=1	=1	=1
!LO:TX:a:t=P:problem=mixed beam	!	!	!	!	!	!LO:TX:a:B:t=Allegretto	!	!LO:TX:a:t=21	!
!	!	!	!	!	!	!	!	!LO:N:vis=00	!
8A\L	.	8c#\L	.	4a/	.	4a/	.	1.r	.
8AA/J	.	8A\J	.	.	.	.	.	.	.
*	*	*	*	*	*	*Xtuplet	*	*	*
!	!	!	!	!	!	!LO:TUP:a:problem=klamra łukowa	!	!	!
8r	.	8r	.	8a/	.	24cc#\LL	.	.	.
.	.	.	.	.	.	24dd\	.	.	.
.	.	.	.	.	.	24ee\JJ	.	.	.
=2	=2	=2	=2	=2	=2	=2	=2	=2	=2
.	.	.	.	.	.	8qqee/	.	.	.
8B\L	.	8r	.	8a/L	.	4dd\	.	.	.
8E\	.	8e\L	.	8g#/	.	.	.	.	.
!	!	!	!	!	!	!LO:SIC:o:s=:v:chorągiewki 8 z lewej strony	!	!	!
8A\J	.	8e\J	.	8a/J	.	8cc#\	.	.	.
=3	=3	=3	=3	=3	=3	=3	=3	=3	=3
!LO:TX:a:t=P:problem=mixed beam	!	!	!	!	!	!LO:SIC:s=:v:8b&colon;t=zgodnie z t. 24	!	!	!
8D\L	.	8f#\L	.	8a/L	.	(8a\L	.	.	.
8E\	.	8e\	.	8a/	.	8cc#\	.	.	.
8EE/J	.	8e\J	.	8g#/J	.	8dd\J)	.	.	.
=4	=4	=4	=4	=4	=4	=4	=4	=4	=4
.	.	.	.	.	.	8qqdd/	.	.	.
!LO:N:vis=4	!	!	!	!	!	!	!	!	!
8AA/	.	4e\	.	8a/L	.	4.cc#\	.	.	.
8r	.	.	.	8e/	.	.	.	.	.
8r	.	8r	.	8A/J	.	.	.	.	.
=5	=5	=5	=5	=5	=5	=5	=5	=5	=5
!	!	!	!	!LO:TX:a:t=P:problem=mixed beam	!	!	!	!	!
!	!	!	!	!	!	!	!	!LO:N:vis=00	!
8D\	.	8d\	.	8ff#\L	.	(8ff#\L	.	1.r	.
4E\	.	4e\	.	8ee\	.	8ee\	.	.	.
.	.	.	.	8g#/J	.	8g#\J)	.	.	.
=6	=6	=6	=6	=6	=6	=6	=6	=6	=6
.	.	.	.	.	.	8qqg#/	.	.	.
8r	.	8r	.	4a/	.	4a/	.	.	.
8F#\L	.	8c#\L	.	.	.	.	.	.	.
8C#\J	.	8e\J	.	8aa\	.	8aa\	.	.	.
=7	=7	=7	=7	=7	=7	=7	=7	=7	=7
4.D\	.	4f#\	.	8aa\L	.	8aa\L	.	.	.
.	.	.	.	(16gg#\L	.	(16gg#\L	.	.	.
.	.	.	.	16ff#\	.	16ff#\)	.	.	.
.	.	8b\	.	16ee\	.	(16ee\	.	.	.
.	.	.	.	16dd\JJ)	.	16dd\JJ)	.	.	.
=8	=8	=8	=8	=8	=8	=8	=8	=8	=8
.	.	.	.	8qqcc#/	.	8qqcc#/	.	.	.
4.E\	.	4.g#\	.	4.b\	.	4b\	.	.	.
.	.	.	.	.	.	8r	.	.	.
!LO:LB:g=original	!	!LO:LB:g=original	!	!	!	!LO:LB:g=original	!	!	!
=9	=9	=9	=9	=9	=9	=9	=9	=9	=9
!	!	!	!	!	!	!	!	!LO:N:vis=00	!
8r	.	8r	.	4a/	.	4cc#\	.	1.r	.
8A\L	.	8e\L	.	.	.	.	.	.	.
8E\J	.	8e\J	.	(16b/LL	.	(16dd\LL	.	.	.
.	.	.	.	16g#/JJ)	.	16b\JJ)	.	.	.
!	!	!	!	!LO:LB:g=original	!	!	!	!	!
=10	=10	=10	=10	=10	=10	=10	=10	=10	=10
!	!	!	!	!	!	!LO:TUP:a:problem=klamra łukowa nieoznaczona	!	!	!
.	.	.	.	8qqdd/	.	16qqdd/	.	.	.
8AA/	.	8e\	.	16cc#\LL	.	24cc#\LL	.	.	.
.	.	.	.	.	.	24b\	.	.	.
.	.	.	.	16b\J	.	.	.	.	.
.	.	.	.	.	.	24a\JJ	.	.	.
8r	.	8r	.	8a\J	.	4e/	.	.	.
8r	.	8r	.	8e/	.	.	.	.	.
=11	=11	=11	=11	=11	=11	=11	=11	=11	=11
8r	.	8r	.	4a/	.	4cc#\	.	.	.
8A\L	.	8e\L	.	.	.	.	.	.	.
8E\J	.	8e\J	.	(16b/LL	.	(16dd\LL	.	.	.
.	.	.	.	16g#/JJ)	.	16b\JJ)	.	.	.
=12	=12	=12	=12	=12	=12	=12	=12	=12	=12
.	.	.	.	8qqdd/	.	8qqdd/	.	.	.
8AA/	.	8e\	.	16cc#\LL	.	16cc#\LL	.	.	.
.	.	.	.	16b\J	.	16b\J	.	.	.
8r	.	8r	.	8a\J	.	8a\J	.	.	.
8r	.	8r	.	8e/	.	8e/	.	.	.
=13	=13	=13	=13	=13	=13	=13	=13	=13	=13
!	!	!	!	!	!	!	!	!LO:N:vis=00	!
8r	.	8r	.	4a/	.	4cc#\	.	1.r	.
8A\L	.	8e\L	.	.	.	.	.	.	.
8E\J	.	8e\J	.	(16b/LL	.	(16dd\LL	.	.	.
.	.	.	.	16g#/JJ)	.	16b\JJ)	.	.	.
=14	=14	=14	=14	=14	=14	=14	=14	=14	=14
*	*	*	*	*Xtuplet	*	*	*	*	*
!LO:TX:a:t=P:problem=mixed beam	!	!	!	!LO:TUP:a:problem=klamra łukowa	!	!LO:TUP:a:problem=klamra łukowa	!	!	!
8AA/L	.	8a\L	.	24cc#\LL	.	24cc#\LL	.	.	.
.	.	.	.	24b\	.	24b\	.	.	.
.	.	.	.	24a\JJ	.	24a\JJ	.	.	.
8d\	.	8a\	.	8ff#\L	.	8ff#\L	.	.	.
8c#\J	.	8a\J	.	8ee\J	.	8ee\J	.	.	.
=15	=15	=15	=15	=15	=15	=15	=15	=15	=15
.	.	.	.	8qqee/	.	8qqee/	.	.	.
8B\L	.	8a\L	.	4dd\	.	4dd\	.	.	.
8E\	.	8g#\	.	.	.	.	.	.	.
8A\J	.	8a\J	.	8cc#\	.	8cc#\	.	.	.
=16	=16	=16	=16	=16	=16	=16	=16	=16	=16
!	!	!	!	!LO:TUP:a:problem=klamra łukowa nieoznaczona	!	!LO:TUP:a:problem=klamra łukowa	!	!	!
8D\L	.	8f#\L	.	24dd\LL	.	24dd\LL	.	.	.
.	.	.	.	24cc#\	.	24cc#\	.	.	.
.	.	.	.	24b\JJ	.	24b\JJ	.	.	.
!	!	!	!	!	!	!LO:SIC:o:s=:v:niejednoznaczny zapis ozdobnika	!	!	!
.	.	.	.	8qqa/	.	8qqcc#/	.	.	.
8E\	.	8e\J	.	4g#/	.	4bT\	.	.	.
8E\J	.	8r	.	.	.	.	.	.	.
!	!	!LO:LB:g=original	!	!LO:LB:g=original	!	!LO:LB:g=original	!	!	!
=17	=17	=17	=17	=17	=17	=17	=17	=17	=17
!	!	!	!	!	!	!	!	!LO:N:vis=00	!
8r	.	8r	.	8a'/L	.	8a'/L	.	1.r	.
8A\L	.	8a\L	.	8a'/	.	8a'/	.	.	.
8G#\J	.	8g#\J	.	8a'/J	.	8a'/J	.	.	.
!LO:LB:g=original	!	!	!	!	!	!	!	!	!
=18	=18	=18	=18	=18	=18	=18	=18	=18	=18
8F#\L	.	8f#\L	.	8a/	.	8a/	.	.	.
!	!	!	!	!LO:TUP:a:problem=klamra łukowa nieoznaczona	!	!LO:TUP:a:problem=klamra łukowa nieoznaczona	!	!	!
8E\	.	8e\	.	24cc#\LL	.	24cc#\LL	.	.	.
.	.	.	.	24b\	.	24b\	.	.	.
.	.	.	.	24a\JJ	.	24a\JJ	.	.	.
!	!	!	!	!LO:TUP:a:problem=klamra łukowa nieoznaczona	!	!LO:TUP:a:problem=klamra łukowa nieoznaczona	!	!	!
8D\J	.	8d\J	.	24cc#\LL	.	24cc#\LL	.	.	.
.	.	.	.	24b\	.	24b\	.	.	.
.	.	.	.	24a\JJ	.	24a\JJ	.	.	.
=19	=19	=19	=19	=19	=19	=19	=19	=19	=19
4C#/	.	4e\	.	8aa\L	.	8aa\L	.	.	.
.	.	.	.	(16gg#\L	.	(16gg#\L	.	.	.
.	.	.	.	16ff#\	.	16ff#\	.	.	.
8BB/	.	8g#\	.	16ee\	.	16ee\	.	.	.
.	.	.	.	16dd\JJ)	.	16dd\JJ)	.	.	.
=20	=20	=20	=20	=20	=20	=20	=20	=20	=20
!	!	!	!	!LO:TUP:a:problem=klamra łukowa nieoznaczona	!	!LO:TUP:a:problem=klamra łukowa	!	!	!
8AA/L	.	8a\L	.	24cc#\LL	.	24cc#\LL	.	.	.
.	.	.	.	24dd\	.	24dd\	.	.	.
.	.	.	.	24ee\JJ	.	24ee\JJ	.	.	.
.	.	.	.	8qqa/	.	8qqa/	.	.	.
8E/	.	8e\	.	4g#/	.	4g#/	.	.	.
8EE/J	.	8d\J	.	.	.	.	.	.	.
=21	=21	=21	=21	=21	=21	=21	=21	=21	=21
!	!	!	!	!	!	!	!	!LO:TX:a:t=[segno]	!
4AA/	.	4c#\	.	8a/L	.	8a/L	.	4.r	.
.	.	.	.	8A/J	.	8A/J	.	.	.
8r	.	8r	.	8r	.	8r	.	.	.
=22||	=22||	=22||	=22||	=22||	=22||	=22||	=22||	=22||	=22||
!LO:TX:a:t=[segno]	!	!LO:TX:a:t=[segno]	!	!LO:TX:a:t=[segno]	!	!	!	!	!
!LO:TX:a:t=P:problem=mixed beam	!LO:DY:t=p&colon;	!	!LO:DY:t=p&colon;	!	!LO:DY:t=p&colon;	!LO:TX:a:t=[segno]	!LO:DY:b:t=piano	!	!
8A\L	p	8c#\L	p	4a/	p	4a/	p	8a\L	A-
8AA/J	.	8A\J	.	.	.	.	.	8cc#\J	.
!	!	!	!	!LO:TUP:a:problem=klamra łukowa	!	!LO:TUP:a:problem=klamra łukowa nieoznaczona	!	!	!
8r	.	8r	.	24a/LL	.	24cc#\LL	.	8ee\	-ve
.	.	.	.	24b/	.	24dd\	.	.	.
.	.	.	.	24cc#/JJ	.	24ee\JJ	.	.	.
=23	=23	=23	=23	=23	=23	=23	=23	=23	=23
.	.	.	.	.	.	8qqee/	.	8qqee/	.
8B\L	.	8b\L	.	4g#/	.	4dd\	.	4dd\	dul-
8E\	.	8e\	.	.	.	.	.	.	.
8A\J	.	8a\J	.	8e/	.	8cc#\	.	8cc#\	-cis
=24	=24	=24	=24	=24	=24	=24	=24	=24	=24
!LO:TX:a:t=P:problem=mixed beam	!	!	!	!	!	!	!	!	!
8D\L	.	8a\L	.	8f#/L	.	(8b\L	.	8b\L	Ma-
8E\	.	8a\	.	8e/	.	8cc#\	.	8cc#\J	.
8EE/J	.	8g#\J	.	8b/J	.	8dd\J)	.	8dd\	.
!	!	!	!	!LO:LB:g=original	!	!LO:LB:g=original	!	!	!
=25	=25	=25	=25	=25	=25	=25	=25	=25	=25
!	!	!LO:TX:a:t=P:problem=mixed beam	!	!	!	!	!	!	!
.	.	.	.	.	.	8qqdd/	.	.	.
4AA/	.	8a\L	.	4.a/	.	4.cc#\	.	4.cc#\	-ter
.	.	8e\	.	.	.	.	.	.	.
8r	.	8A/J	.	.	.	.	.	.	.
!	!	!LO:LB:g=original	!	!	!	!	!	!	!
=26	=26	=26	=26	=26	=26	=26	=26	=26	=26
8D\	.	8d\L	.	8a/L	.	(8ff#\L	.	8ff#\L	Chri-
4E\	.	8c#\	.	8c#/	.	8ee\	.	8ee\J	.
.	.	8B\J	.	8A/J	.	8g#\J)	.	8g#\	.
!LO:LB:g=original	!	!	!	!	!	!	!	!	!
=27	=27	=27	=27	=27	=27	=27	=27	=27	=27
.	.	.	.	.	.	8qqg#/	.	.	.
8r	.	4.A/	.	4.A/	.	4.a/	.	4.a\	-sti
8F#\L	.	.	.	.	.	.	.	.	.
8C#\J	.	.	.	.	.	.	.	.	.
=28	=28	=28	=28	=28	=28	=28	=28	=28	=28
!	!	!	!	!	!LO:DY:a:t=for	!	!	!	!
!	!	!	!	!	!	!	!LO:DY:t=pocofor.	!	!
8D\	.	8d\L	f	8d/L	f	(8ff#\L	f	(8ff#\L	Chri-
4E\	.	8c#\	.	8c#/	.	8ee\	.	8ee\J)	.
.	.	8B\J	.	8B/J	.	8g#\J)	.	8g#\	.
!	!	!	!	!	!	!	!	!LO:LB:g=original	!
=29	=29	=29	=29	=29	=29	=29	=29	=29	=29
!LO:TX:a:t=P:problem=mixed beam	!	!	!	!	!	!	!	!	!
.	.	.	.	.	.	8qqg#/	.	8qqg#/	.
8A\L	.	4.c#/	.	4.c#/	.	4.a/	.	4a\	-sti
8E\	.	.	.	.	.	.	.	.	.
8AA/J	.	.	.	.	.	.	.	8r	.
=30	=30	=30	=30	=30	=30	=30	=30	=30	=30
!	!	!	!	!	!LO:DY:a:t=p&colon;	!	!	!	!
8r	.	8r	.	8c#/L	p	8e/L	p	4e/	A-
8r	.	8r	.	8e/	.	8a/J	.	.	.
!	!LO:DY:t=p.	!	!LO:DY:t=p&colon;	!	!	!	!	!	!
8AA/	p	8e\	p	8a/J	.	8cc#\	.	8cc#\	-ve
=31	=31	=31	=31	=31	=31	=31	=31	=31	=31
!LO:TX:a:t=P:problem=mixed beam	!	!	!	!	!	!	!	!	!
8E\L	.	4e\	.	(8a/L	.	8cc#\L	.	8cc#\L	dul-
8EE/	.	.	.	8g#/J)	.	8b\J	.	8b\J	-cis
8EE/J	.	8r	.	8r	.	8r	.	8r	.
=32	=32	=32	=32	=32	=32	=32	=32	=32	=32
8r	.	8r	.	8e/L	.	(8e/L	.	4e/	Ma-
8r	.	8r	.	8g#/	.	8b/J)	.	.	.
8E\	.	8e\	.	8b/J	.	8dd\	.	8dd\	-ter
=33	=33	=33	=33	=33	=33	=33	=33	=33	=33
!LO:TX:a:t=P:problem=mixed beam	!	!	!	!	!	!	!	!	!
8A\L	.	4e\	.	8b\L	.	8dd\L	.	(8dd\L	Chri-
8AA/J	.	.	.	8a\J	.	8cc#\	.	8cc#\J)	.
8r	.	8r	.	8r	.	8ee\J	.	8ee\	-sti
=34	=34	=34	=34	=34	=34	=34	=34	=34	=34
!LO:SIC:o:s=:v:znak początku repetycji	!	!	!	!	!	!	!	!	!
8r	.	8r	.	8r	.	4aa\	f	4aa\	Ma-
8C#/L	.	8e\L	.	8r	.	.	.	.	.
8AA/J	.	8e\J	.	8a/	.	8cc#\	.	8cc#\	-ter
!	!	!LO:LB:g=original	!	!	!	!LO:LB:g=original	!	!	!
=35	=35	=35	=35	=35	=35	=35	=35	=35	=35
!LO:TX:a:t=bis	!	!	!	!	!	!	!	!	!
!LO:TX:a:t=P:problem=mixed beam	!	!	!	!	!	!	!	!	!
8E/L	.	4e\	.	8a/L	.	8cc#\L	.	8cc#\L	Chri-
8EE/J	.	.	.	8g#/J	.	8b\J	.	8b\J	.
!LO:SIC:o:s=:v:znak końca repetycji	!	!	!	!	!	!	!	!	!
8r	.	8r	.	8r	.	8e/	.	8e/	-sti
!	!	!	!	!LO:LB:g=original	!	!	!	!	!
=36	=36	=36	=36	=36	=36	=36	=36	=36	=36
!LO:SIC:o:s=:v:powtórzenie tt. 34-35 oznaczone znakami repetycji adnotacja "bis"	!	!	!	!	!	!	!	!	!
!	!	!	!	!	!	!	!LO:DY:t=pocofor.	!	!
8ryy	.	8r	.	8r	.	4aa\	f	4aa\	Ma-
8C#/Lyy	.	8e\L	f	8r	.	.	.	.	.
8AA/Jyy	.	8e\J	.	8a/	.	8cc#\	.	8cc#\	-ter
=37	=37	=37	=37	=37	=37	=37	=37	=37	=37
!LO:TX:a:t=P:problem=mixed beam	!	!	!	!	!	!	!	!	!
8E/Lyy	.	8e\L	.	(8a/L	.	8cc#\L	.	8cc#\L	Chri-
8EE/Jyy	.	8e\J	.	8g#/J)	.	8b\J	.	8b\J	-sti
8ryy	.	8r	.	8r	.	8r	.	8r	.
!LO:LB:g=original	!	!	!	!	!	!	!	!LO:LB:g=original	!
=38	=38	=38	=38	=38	=38	=38	=38	=38	=38
!	!	!	!	!	!	!	!LO:DY:t=piano	!	!
8r	.	8r	.	8r	.	4ee\	p	4ee\	qu(ae)
!	!LO:DY:t=p&colon;	!	!	!	!LO:DY:a:t=p&colon;	!	!	!	!
8G#\L	p	8g#\L	.	8b\L	p	.	.	.	.
8E\J	.	8e\J	.	8g#\J	.	8ee\	.	8ee\	prae
=39	=39	=39	=39	=39	=39	=39	=39	=39	=39
.	.	.	.	.	.	16qqff#/	.	8qqff#/	.
8A\	.	8a\	.	8cc#\	.	16ee\LL	.	16ee\LL	Re-
.	.	.	.	.	.	16dd\J	.	16dd\J	.
8r	.	8r	.	8r	.	8cc#\	.	8cc#\J	.
8r	.	8r	.	8r	.	8ee\J	.	8ee\	-gis
=40	=40	=40	=40	=40	=40	=40	=40	=40	=40
8r	.	8r	.	8r	.	4ee\	.	4ee\	quae
8G#\L	.	8g#\L	.	8b\L	.	.	.	.	.
8E\J	.	8e\J	.	8g#\J	.	8ee\	.	8ee\	prae
=41	=41	=41	=41	=41	=41	=41	=41	=41	=41
.	.	.	.	.	.	16qqff#/	.	8qqff#/	.
8A\	.	8a\	.	8cc#\	.	16ee\LL	.	16ee\LL	Re-
.	.	.	.	.	.	16dd\J	.	16dd\J	.
8r	.	8r	.	8r	.	8cc#\	.	8cc#\J	.
8r	.	8r	.	8r	.	8ee\J	.	8ee\	-gis
=42	=42	=42	=42	=42	=42	=42	=42	=42	=42
!	!	!	!	!	!	!LO:TX:a:t=P:problem=mixed beam	!	!	!
8r	.	8r	.	8r	.	8a/L	.	8a\L	Fu-
8F#\L	.	8f#\L	.	8cc#\L	.	8aa\	.	8aa\J	.
8A\J	.	8a\J	.	8a\J	.	8ff#\J	.	8ff#\	-ri-
!	!	!LO:LB:g=original	!	!	!	!	!	!	!
=43	=43	=43	=43	=43	=43	=43	=43	=43	=43
!LO:TX:a:t=P:problem=mixed beam	!	!LO:TX:a:t=P:problem=mixed beam	!	!	!	!	!	!	!
.	.	.	.	.	.	.	.	8qqee/	.
8B\L	.	8b\L	.	4.f#/	.	4.dd#X\	.	4.dd#X\	-a
8BB/	.	8B/	.	.	.	.	.	.	.
8A\J	.	8A/J	.	.	.	.	.	.	.
!	!	!	!	!	!	!LO:LB:g=original	!	!	!
=44	=44	=44	=44	=44	=44	=44	=44	=44	=44
4G#\	.	4G#/	.	4e/	.	8r	.	8r	.
.	.	.	.	.	.	8ee\L	.	8ee\	Sae-
8r	.	8r	.	8r	.	8b\J	.	8b\	-vi-
=45	=45	=45	=45	=45	=45	=45	=45	=45	=45
!	!	!	!	!	!	!LO:TX:a:t=P:problem=mixed beam	!	!	!
.	.	.	.	.	.	.	.	8qqb/	.
4D#X\	.	4B/	.	4f#/	.	8ff#\L	.	4a\	-en-
.	.	.	.	.	.	8a/	.	.	.
!	!	!LO:SIC:s=:v:8c#	!	!	!	!	!	!	!
8E\	.	8d\	.	8e/	.	8g#/J	.	8g#\	-tis
!	!	!	!	!LO:LB:g=original	!	!	!	!LO:LB:g=original	!
=46	=46	=46	=46	=46	=46	=46	=46	=46	=46
8AA/L	.	8A/L	.	8f#/	.	8a/	.	16cc#\LL	cae-
.	.	.	.	.	.	.	.	16b\JJ	.
.	.	.	.	.	.	8qqg#/	.	.	.
8BB/	.	8B/	.	4d#X/	.	4f#/	.	4f#/	-de
8BB/J	.	8B/J	.	.	.	.	.	.	.
=47	=47	=47	=47	=47	=47	=47	=47	=47	=47
!	!	!	!	!	!	!LO:TX:a:t=P:problem=mixed beam	!	!LO:TX:a:t=P:problem=mixed beam	!
8E\	.	8e\	.	(8e/L	.	8e/L	.	(8e\L	tri-
!	!	!	!	!	!	!LO:SIC:o:s=:v:niejednoznaczny zapis łuku	!	!	!
8r	.	8r	.	8a/	.	(8cc#\	.	8cc#\)	.
8r	.	8r	.	8g#/J)	.	8b\J)	.	8b`\J	-sti
!LO:LB:g=original	!	!	!	!	!	!	!	!	!
=48	=48	=48	=48	=48	=48	=48	=48	=48	=48
8BB/	.	8B/	.	8r	.	8r	.	8r	.
!	!	!	!	!LO:TX:a:t=P:problem=mixed beam	!	!LO:TX:a:t=P:problem=mixed beam	!	!	!
.	.	.	.	.	.	.	.	8qqb/	.
8r	.	8r	.	8dd#X\L	.	8ff#\L	.	16a\LL	cae-
.	.	.	.	.	.	.	.	16g#\	.
8r	.	8r	.	8f#/J	.	8a/J	.	16a\	.
.	.	.	.	.	.	.	.	16b\JJ	.
=49	=49	=49	=49	=49	=49	=49	=49	=49	=49
8E\	.	8e\	.	(8e/L	.	8g#/L	.	(8g#\	-de
!	!	!	!	!	!	!LO:SIC:o:s=:v:niejednoznaczny zapis łuku	!	!	!
8r	.	8r	.	8a/	.	(8cc#/	.	8cc#\L)	tri-
8r	.	8r	.	8g#/J)	.	8b/J)	.	8b`\J	-sti
=50	=50	=50	=50	=50	=50	=50	=50	=50	=50
8BB/	.	8B/	.	8r	.	8r	.	8r	.
!	!	!	!	!LO:TX:a:t=P:problem=mixed beam	!	!	!	!LO:SIC:o:s=:v:niejednoznaczny zapis łuku	!
8r	.	8r	.	8dd#X\L	.	8ff#\L	.	(16ff#\LL	Fu-
.	.	.	.	.	.	.	.	16dd#X\	.
8r	.	8r	.	8f#/J	.	8a\J	.	16cc#\	.
.	.	.	.	.	.	.	.	16b\JJ)	.
!	!	!LO:LB:g=original	!	!	!	!	!	!	!
=51	=51	=51	=51	=51	=51	=51	=51	=51	=51
!	!	!	!	!	!	!LO:TX:a:t=P:problem=mixed beam	!	!	!
8E\L	.	8e\L	.	8e/L	.	8g#/L	.	8g#\L	-gis
!	!	!	!	!	!	!LO:SIC:o:s=:v:niejednoznaczny zapis łuku	!	!	!
8G#\	.	8g#\	.	(8b/	.	(8ee\	.	8ee\J	.
!	!	!	!	!LO:TX:a:t=30	!	!LO:TX:a:t=c	!	!	!
8A\J	.	8a\J	.	8cc#/J)	.	8cc#\J)	.	8cc#\	.
=52	=52	=52	=52	=52	=52	=52	=52	=52	=52
!	!	!LO:TX:a:t=P:problem=mixed beam	!	!	!	!	!	!	!
8F#\L	.	8f#\L	.	8ff#\	.	8aa\	.	16aa\LL	ex-
.	.	.	.	.	.	.	.	16ff#\JJ	.
.	.	.	.	8qqee/	.	8qqgg#/	.	8qqee/	.
8B\	.	8b\	.	4dd#X\	.	4ff#\	.	4dd#X\	-ul
8BB/J	.	8B/J	.	.	.	.	.	.	.
!	!	!	!	!	!	!LO:LB:g=original	!	!LO:LB:g=original	!
=53	=53	=53	=53	=53	=53	=53	=53	=53	=53
!	!	!	!	!LO:TX:a:t=P:problem=mixed beam	!	!LO:TX:a:t=P:problem=mixed beam	!	!	!
8r	.	8r	.	8ee\L	.	8ee\L	.	8ee\L	Pa-
8E\L	.	8e\L	.	8e/	.	8e/	.	8ee\J	.
8D#X\J	.	8d#X\J	.	8e/J	.	8e/J	.	8ee\	-tri-
!	!	!	!	!LO:LB:g=original	!	!	!	!	!
=54	=54	=54	=54	=54	=54	=54	=54	=54	=54
8C#/L	.	8c#\L	.	8e/	.	8e/	.	4.ee\	-a
!	!	!	!	!LO:TUP:a:problem=klamra łukowa nieoznaczona	!	!LO:TUP:a:problem=klamra łukowa nieoznaczona	!	!	!
8BB/	.	8B\	.	24g#/LL	.	24g#/LL	.	.	.
.	.	.	.	24f#/	.	24f#/	.	.	.
.	.	.	.	24e/JJ	.	24e/JJ	.	.	.
!	!	!	!	!LO:TUP:a:problem=klamra łukowa nieoznaczona	!	!LO:TUP:a:problem=klamra łukowa nieoznaczona	!	!	!
8AA/J	.	8A\J	.	24g#/LL	.	24g#/LL	.	.	.
.	.	.	.	24f#/	.	24f#/	.	.	.
.	.	.	.	24e/JJ	.	24e/JJ	.	.	.
=55	=55	=55	=55	=55	=55	=55	=55	=55	=55
!	!	!	!	!	!LO:DY:t=for.	!	!	!	!
4GG#/	f	4B/	.	8ee\L	f	8ee\L	f	8ee\	e-
.	.	.	.	(16dd#X\L	.	(16dd#X\L	.	16dd#X\LL	-xul
.	.	.	.	16cc#\)	.	16cc#\	.	16cc#\JJ	.
8GG#/	.	8d#X\	.	(16b\	.	16b\	.	16b\LL	.
.	.	.	.	16a\JJ)	.	16a\JJ)	.	16a\JJ	.
=56	=56	=56	=56	=56	=56	=56	=56	=56	=56
!	!	!	!	!LO:TUP:a:problem=klamra łukowa	!	!LO:TUP:a:problem=klamra łukowa	!	!	!
8EE/L	.	8e\L	.	24g#/LL	.	24g#/LL	.	16g#\LL	Pa-
.	.	.	.	24a/	.	24a/	.	.	.
.	.	.	.	.	.	.	.	16a\JJ	.
.	.	.	.	24b/JJ	.	24b/JJ	.	.	.
.	.	.	.	4qqe/	.	8qqe/	.	.	.
8BB/	.	8B\	.	4d#X/	.	4d#X/	.	8.f#/	.
8BB/J	.	8B\J	.	.	.	.	.	.	.
.	.	.	.	.	.	.	.	16f#/	-tri-
!LO:LB:g=original	!	!	!	!	!	!	!	!	!
=57	=57	=57	=57	=57	=57	=57	=57	=57	=57
!	!	!LO:TX:a:t=P:problem=mixed beam	!	!	!	!	!LO:DY:t=fortio	!	!
8E\L	.	8B/L	.	4ee\	f	4gg#\	f	4e/	-a
8e\	.	8b\	.	.	.	.	.	.	.
8B\J	.	8b\J	.	(16ff#\LL	.	16aa\LL	.	8r	.
.	.	.	.	16dd#X\JJ)	.	16ff#\JJ	.	.	.
=58	=58	=58	=58	=58	=58	=58	=58	=58	=58
!	!	!	!	!	!	!	!	!LO:TX:a:t=9	!
.	.	.	.	8qqaa/	.	16qqaa/	.	.	.
!	!	!	!	!	!	!	!	!LO:N:vis=00	!
4E\	.	4b\	.	16gg#\LL	.	16gg#\LL	.	1.r	.
.	.	.	.	16ff#\J	.	16ff#\J	.	.	.
.	.	.	.	8ee\	.	8ee\	.	.	.
8r	.	8r	.	8b\J	.	8b\J	.	.	.
=59	=59	=59	=59	=59	=59	=59	=59	=59	=59
8r	.	8r	.	4ee\	.	4gg#\	.	.	.
8e\L	.	8b\L	.	.	.	.	.	.	.
8B\J	.	8b\J	.	16ff#\LL	.	(16aa\LL	.	.	.
.	.	.	.	16dd#X\JJ	.	16ff#\JJ)	.	.	.
!	!	!LO:LB:g=original	!	!	!	!LO:LB:g=original	!	!	!
=60	=60	=60	=60	=60	=60	=60	=60	=60	=60
.	.	.	.	8qqaa/	.	8qqaa/	.	.	.
4E\	.	4b\	.	16gg#\LL	.	16gg#\LL	.	.	.
.	.	.	.	16ff#\J	.	16ff#\J	.	.	.
.	.	.	.	8ee\	.	8ee\	.	.	.
8r	.	8r	.	8b\J	.	8b\J	.	.	.
=61	=61	=61	=61	=61	=61	=61	=61	=61	=61
!	!	!	!	!LO:TUP:a:problem=klamra łukowa	!	!LO:TUP:a:problem=klamra łukowa nieoznaczona	!	!	!
8r	.	8r	.	24gg#\LL	.	24gg#\LL	.	.	.
.	.	.	.	24ff#\	.	24ff#\	.	.	.
.	.	.	.	24ee\JJ	.	24ee\JJ	.	.	.
8A\L	.	8e\L	.	8ccc#\L	.	8ccc#\L	.	.	.
8G#\J	.	8e\J	.	8bb\J	.	8bb\J	.	.	.
!	!	!	!	!LO:LB:g=original	!	!	!	!	!
=62	=62	=62	=62	=62	=62	=62	=62	=62	=62
!LO:TX:a:t=P:problem=mixed beam	!	!	!	!	!	!	!	!	!
!	!	!	!	!	!	!	!	!LO:N:vis=00	!
8F#\L	.	8e\L	.	4aa\	.	4aa\	.	1.r	.
8BB/	.	8d#X\	.	.	.	.	.	.	.
8E/J	.	8e\J	.	8gg#\	.	8gg#\	.	.	.
=63	=63	=63	=63	=63	=63	=63	=63	=63	=63
!LO:TX:a:t=P:problem=mixed beam	!	!	!	!LO:TUP:a:problem=klamra łukowa nieoznaczona	!	!LO:TUP:a:problem=klamra łukowa nieoznaczona	!	!	!
8A\L	.	8e\L	.	24aa\LL	.	24aa\LL	.	.	.
.	.	.	.	24gg#\	.	24gg#\	.	.	.
.	.	.	.	24ff#\JJ	.	24ff#\JJ	.	.	.
.	.	.	.	.	.	8qqgg#/	.	.	.
8B\	.	8e\	.	4ff#\	.	4ff#T\	.	.	.
8BB/J	.	8d#X\J	.	.	.	.	.	.	.
=64	=64	=64	=64	=64	=64	=64	=64	=64	=64
!	!	!	!	!	!	!LO:N:vis=8	!	!	!
8E\	.	8e\	.	8.ee\	.	8.ee\	.	.	.
16r	.	16r	.	.	.	.	.	.	.
16E\LL	.	16e\LL	.	16ggn\LL	.	16ggn\LL	.	.	.
16D\	.	16dn\	.	16ff#\	.	16ff#\	.	.	.
16C#\JJ	.	16c#\JJ	.	16ee\JJ	.	16ee\JJ	.	.	.
=65	=65	=65	=65	=65	=65	=65	=65	=65	=65
!	!	!LO:TX:a:t=P:problem=mixed beam	!	!	!	!	!	!	!
8BB\L	.	8B/L	.	(16dd\LL	.	16dd\LL	.	.	.
.	.	.	.	16ff#\	.	16ff#\	.	.	.
8Gn\	.	8b\	.	16ee\	.	16ee\	.	.	.
.	.	.	.	16dd\	.	16dd\	.	.	.
8E\J	.	8an\J	.	16cc#\	.	16cc#\	.	.	.
.	.	.	.	16b\JJ)	.	16b\JJ	.	.	.
!LO:LB:g=original	!	!	!	!	!	!	!	!	!
=66	=66	=66	=66	=66	=66	=66	=66	=66	=66
.	.	.	.	.	.	16qqb/	.	.	.
8F#\	.	8f#\	.	16a#X/LL	.	16a#X/LL	.	4.r	.
.	.	.	.	16g#X/JJ	.	16g#X/JJ	.	.	.
16r	.	16r	.	4f#/	.	4f#/	.	.	.
16E\LL	.	16e\LL	.	.	.	.	.	.	.
16D\	.	16d\	.	.	.	.	.	.	.
16C#\JJ	.	16c#\JJ	.	.	.	.	.	.	.
=67	=67	=67	=67	=67	=67	=67	=67	=67	=67
!	!	!LO:N:vis=4.	!	!	!LO:DY:t=p&colon;	!	!	!	!
4BB/	.	4B/	.	4b\	p	4b\	p	8b\L	A-
.	.	.	.	.	.	.	.	8dd\J	.
!	!	!	!	!LO:TUP:a:problem=klamra łukowa	!	!LO:TUP:a:problem=klamra łukowa	!	!	!
8B\	.	8b\	.	24b\LL	.	24dd\LL	.	8ff#\	-ve
.	.	.	.	24cc#\	.	24ee\	.	.	.
.	.	.	.	24dd\JJ	.	24ff#\JJ	.	.	.
!	!	!LO:LB:g=original	!	!	!	!LO:LB:g=original	!	!	!
=68	=68	=68	=68	=68	=68	=68	=68	=68	=68
.	.	.	.	.	.	.	.	8qqff#/	.
8c#\L	.	8cc#\L	.	4a#X/	.	4ee\	.	4ee\	Ma-
8F#\	.	8f#\	.	.	.	.	.	.	.
8B\J	.	8b\J	.	8b/	.	8dd\	.	8dd\	-ter
!	!	!	!	!	!	!	!	!LO:LB:g=original	!
=69	=69	=69	=69	=69	=69	=69	=69	=69	=69
8E\	.	8e\L	.	(8b/L	f	8ggn\L	f	8ggn\L	Chri-
4F#\	.	8d\	.	8d/)	.	8ff#\	.	8ff#\J	.
.	.	8c#\J	.	8c#/J	.	8a#X\J	.	8a#X\	.
!	!	!	!	!LO:LB:g=original	!	!	!	!	!
=70	=70	=70	=70	=70	=70	=70	=70	=70	=70
!LO:TX:a:t=+	!	!	!	!	!	!LO:SIC:s=:v:8qa#	!	!	!
.	.	.	.	.	.	8qqa/	.	.	.
8r	.	4.B/	.	4.B/	.	4.b/	.	4.b\	-sti
8Gn\L	.	.	.	.	.	.	.	.	.
8D\J	.	.	.	.	.	.	.	.	.
=71	=71	=71	=71	=71	=71	=71	=71	=71	=71
!	!	!	!	!	!	!.	!	!	!
!	!	!	!	!	!	!LO:TX:a:t=P:problem=mixed beam	!	!	!
!	!	!	!	!	!	!	!LO:DY:t=pocofor.	!	!
8E\	.	8e\L	.	8e/L	.	8ggn\L	f	8ggn\L	Chri-
4F#\	.	8d\	.	8d/	.	8ff#\	.	8ff#\J	.
.	.	8c#\J	.	8c#/J	.	8a#X/J	.	8a#X\	.
=72	=72	=72	=72	=72	=72	=72	=72	=72	=72
!	!	!LO:N:vis=4.	!	!	!	!LO:SIC:s=:v:4qa#	!	!	!
.	.	.	.	.	.	4qqa/	p	.	.
!	!	!	!LO:DY:t=p&colon;	!	!LO:DY:a:t=p&colon;	!	!	!	!
8r	.	4B/	p	4d/	p	4.b/	.	4.b\	-sti
!	!LO:DY:t=p.	!	!	!	!	!	!	!	!
8B\L	p	.	.	.	.	.	.	.	.
8A\J	.	8A/	.	8c#/	.	.	.	.	.
=73	=73	=73	=73	=73	=73	=73	=73	=73	=73
!	!	!	!	!	!	!LO:SIC:o:s=:v:niejednoznaczny zapis łuku	!	!	!
4G#X\	.	4G#X/	.	4B/	.	(8e/L	.	4e/	A-
.	.	.	.	.	.	8b/	.	.	.
8r	.	8r	.	8b\	.	8dd/J)	.	8dd\	-ve
=74	=74	=74	=74	=74	=74	=74	=74	=74	=74
8r	.	8r	.	4e/	.	8dd\L	.	(8dd\L	dul-
8A\L	.	8a\L	.	.	.	8cc#\J	.	8cc#\J)	-cis
8E\J	.	8e\J	.	8r	.	8r	.	8r	.
=75	=75	=75	=75	=75	=75	=75	=75	=75	=75
4C#/	.	4c#/	.	8A/L	.	8e/L	.	4e/	Ma-
.	.	.	.	8e/	.	8a/J	.	.	.
8AA/	.	8A/	.	8a/J	.	[<8cc#\	.	8cc#\	-ter
=76	=76	=76	=76	=76	=76	=76	=76	=76	=76
4E\	.	4e\	.	8a/L	.	8cc#\L]	.	8cc#\L	Chri-
.	.	.	.	8g#/	f	8b\J	.	8b\J	.
8r	.	8r	.	8e/J	.	8e/	.	8ee\	-sti
!LO:LB:g=original	!	!LO:LB:g=original	!	!	!	!	!	!	!
=77	=77	=77	=77	=77	=77	=77	=77	=77	=77
8r	.	8r	.	4aa\	.	4aa\	f	4aa\	Ma-
8C#/L	.	8e\L	.	.	.	.	.	.	.
8AA/J	.	8e\J	.	8a/	.	8cc#\	.	8cc#\	-ter
!	!	!	!	!	!	!	!	!LO:LB:g=original	!
=78	=78	=78	=78	=78	=78	=78	=78	=78	=78
!LO:TX:a:t=P:problem=mixed beam	!	!LO:TX:a:t=P:problem=mixed beam	!	!	!	!	!	!	!
8E\L	.	8e\L	.	8a/L	.	8cc#\L	.	8cc#\L	Chri-
8EE/J	.	8E/J	.	8g#/J	.	8b\J	.	8b\J	-sti
8r	.	8r	.	8r	.	8r	.	8r	.
!	!	!	!	!	!	!LO:LB:g=original	!	!	!
=79	=79	=79	=79	=79	=79	=79	=79	=79	=79
!	!	!	!	!	!LO:DY:t=p&colon;	!	!	!	!
8r	.	8r	.	4a/	p	4cc#\	p	4cc#\	quae
8A\L	.	8e\L	.	.	.	.	.	.	.
8E\J	.	8e\J	.	(16b/LL	.	16dd\LL	.	16dd\LL	prae
.	.	.	.	16g#/JJ)	.	16b\JJ	.	16b\JJ	.
!	!	!	!	!LO:LB:g=original	!	!	!	!	!
=80	=80	=80	=80	=80	=80	=80	=80	=80	=80
.	.	.	.	.	.	16qqdd/	.	.	.
8AA/	.	8e\	.	8a/	.	16cc#\LL	.	(16cc#\LL	Re-
.	.	.	.	.	.	16b\J	.	16b\JJ)	.
8r	.	8r	.	8r	.	8a\J	.	8a\	-gis
8r	.	8r	.	8r	.	8e/	.	8e/	.
=81	=81	=81	=81	=81	=81	=81	=81	=81	=81
8r	.	8r	.	4a/	f	4cc#\	.	4cc#\	quae
8A\L	.	8e\L	.	.	.	.	.	.	.
8E\J	.	8e\J	.	16b/LL	.	(16dd\LL	.	16dd\LL	prae
.	.	.	.	16g#/JJ	.	16b\JJ)	.	16b\JJ	.
!	!	!	!	!LO:TX:a:t=60	!	!	!	!	!
=82	=82	=82	=82	=82	=82	=82	=82	=82	=82
.	.	.	.	.	.	16qqdd/	.	8qqdd/	.
4AA/	.	8e\	.	8a/	.	16cc#\LL	.	16cc#\LL	Re-
.	.	.	.	.	.	16b\J	.	16b\J	.
.	.	8r	.	8r	.	8a\J	.	8a\J	.
8r	.	8r	.	8e/	.	8e/	.	8e'/	-gis
=83	=83	=83	=83	=83	=83	=83	=83	=83	=83
!LO:TX:a:t=P:problem=mixed beam	!	!LO:TX:a:t=P:problem=mixed beam	!	!	!	!	!	!	!
8A\L	.	8e\L	.	4.a/	.	4cc#\	.	4cc#\	Fu-
8AA/J	.	8A/J	.	.	.	.	.	.	.
8r	.	8r	.	.	.	16aa\LL	.	16ee\LL	-ri-
.	.	.	.	.	.	16cc#\JJ	.	16cc#\JJ	.
=84	=84	=84	=84	=84	=84	=84	=84	=84	=84
!LO:TX:a:t=P:problem=mixed beam	!	!	!	!	!	!	!	!	!
.	.	.	.	.	.	8qqcc#/	.	.	.
8B\L	.	8B/L	.	4.a/	.	4dd\	.	4dd\	-a
8BB/J	.	8B/J	.	.	.	.	.	.	.
8r	.	8r	.	.	.	(16aa\LL	.	8r	.
.	.	.	.	.	.	16dd\JJ)	.	.	.
=85	=85	=85	=85	=85	=85	=85	=85	=85	=85
!LO:TX:a:t=P:problem=mixed beam	!	!	!	!	!	!	!	!	!
8c#\L	.	8c#/L	.	4.a/	.	4ee\	.	8r	.
8C#/J	.	8c#/J	.	.	.	.	.	(16ee\LL	Sae-
.	.	.	.	.	.	.	.	16dd\JJ)	.
8r	.	8r	.	.	.	(16aa\LL	.	(16cc#\LL	-vi-
.	.	.	.	.	.	16ee\JJ)	.	16b\JJ)	.
!	!	!LO:LB:g=original	!	!	!	!	!	!LO:LB:g=original	!
=86	=86	=86	=86	=86	=86	=86	=86	=86	=86
.	.	.	.	.	.	8qqee/	.	.	.
4D\	.	4d\	.	8a\L	.	4ff#\	.	8a\L	-en-
.	.	.	.	8dd\	.	.	.	8ff#\J	.
8r	.	8r	.	8cc#\J	.	8ee\	.	8ee\	-tis
=87	=87	=87	=87	=87	=87	=87	=87	=87	=87
8r	.	8r	.	8b\	.	8dd\	.	8dd\	cae-
8r	.	8r	.	4a\	.	4cc#\	.	4cc#\	-de
8D#X\	.	8d#X\	.	.	.	.	.	.	.
!LO:LB:g=original	!	!	!	!	!	!LO:LB:g=original	!	!	!
=88	=88	=88	=88	=88	=88	=88	=88	=88	=88
8E\	.	8e\	.	(8g#\L	.	8b\	.	8b\	tri-
8r	.	8r	.	8cc#\	.	(8ee\L	.	8ee\L	-sti
8r	.	8r	.	8b\J)	.	8dd\J)	.	8dd\J	.
!	!	!	!	!LO:LB:g=original	!	!	!	!	!
=89	=89	=89	=89	=89	=89	=89	=89	=89	=89
8E\	.	8e\	.	8r	.	8r	.	8r	.
.	.	.	.	.	.	.	.	8qqdd/	.
8r	.	8r	.	8cc#\L	.	8aa\L	.	16cc#\LL	cae-
.	.	.	.	.	.	.	.	16b\	.
8r	.	8r	.	8a\J	.	8cc#\J	.	16cc#\	.
.	.	.	.	.	.	.	.	16dd\JJ	.
=90	=90	=90	=90	=90	=90	=90	=90	=90	=90
8E\	.	8e\	.	(8g#\L	.	8b/	.	8b\L	-de
8r	.	8r	.	8cc#\	.	8ee\L	.	8ee\	.
8r	.	8r	.	8b\J)	.	8dd\J	.	8dd\J	.
=91	=91	=91	=91	=91	=91	=91	=91	=91	=91
8E\	.	8e\	.	8r	.	8r	.	8r	.
.	.	.	.	.	.	.	.	8qqdd/	.
8r	.	8r	.	8cc#\L	.	8aa\L	.	16cc#\LL	cae-
.	.	.	.	.	.	.	.	16b\	.
8r	.	8r	.	8a\J	.	8cc#\J	.	16cc#\	.
.	.	.	.	.	.	.	.	16dd\JJ	.
!	!	!LO:LB:g=original	!	!	!	!	!	!	!
=92	=92	=92	=92	=92	=92	=92	=92	=92	=92
8E\	.	8e\	.	8g#\L	.	8b\	.	8b\L	.
!	!	!	!	!LO:SIC:o:s=:v:niejednoznaczny zapis łuku	!	!	!	!	!
8r	.	8r	.	(8dd\	.	(8ff#\L	.	8ff#\	.
8r	.	8r	.	8cc#\J)	.	8ee\J)	.	8ee\J	.
=93	=93	=93	=93	=93	=93	=93	=93	=93	=93
8E\	.	8e\	.	8r	.	8r	.	8r	.
.	.	.	.	.	.	.	.	8qqee/	.
8r	.	8r	.	8dd\L	.	8bb\L	.	16dd\LL	.
.	.	.	.	.	.	.	.	16cc#\	.
8r	.	8r	.	8b\J	.	8dd\J	.	16dd\	.
.	.	.	.	.	.	.	.	16ee\JJ	.
!	!	!	!	!	!	!	!	!LO:LB:g=original	!
=94	=94	=94	=94	=94	=94	=94	=94	=94	=94
8A\	.	8a\	.	8cc#\	.	8cc#\	.	8cc#\L	.
8r	.	8r	.	(8ff#\L	.	8aa\L	.	8aa\	.
8r	.	8r	.	8ee\J)	.	8gg#\J	.	8gg#\J	.
=95	=95	=95	=95	=95	=95	=95	=95	=95	=95
8A\	.	8a\	.	8r	.	8r	.	8r	.
8r	.	8r	.	8dd\L	.	(8ff#\L	.	8ff#\L	.
8r	.	8r	.	8cc#\J	.	8ee\J)	.	8ee\J	.
!LO:LB:g=original	!	!	!	!	!	!	!	!	!
=96	=96	=96	=96	=96	=96	=96	=96	=96	=96
8A\	.	8a\	.	8r	.	8r	.	8r	.
8r	.	8r	.	8b\L	.	(8dd\L	.	(16dd\LL	.
.	.	.	.	.	.	.	.	16b\JJ)	.
8r	.	8r	.	8a\J	.	8cc#\J)	.	(16cc#\LL	.
.	.	.	.	.	.	.	.	16a\JJ)	.
!	!	!	!	!LO:PB:g=original	!	!LO:LB:g=original	!	!	!
=97	=97	=97	=97	=97	=97	=97	=97	=97	=97
.	.	.	.	.	.	8qqcc#/	.	.	.
8r	.	8r	.	4g#/	.	4b/	.	4g#X\	-de
8E\L	.	8e\L	.	.	.	.	.	.	.
8F#\J	.	8f#\J	.	8a/	.	8a/	.	8a\	.
=98	=98	=98	=98	=98	=98	=98	=98	=98	=98
8D\L	.	8d\L	.	8b/	.	8dd\	.	16dd\LL	tri-
.	.	.	.	.	.	.	.	16b\JJ	.
8E\	.	8e\	.	4g#/	.	4b\	.	4b\	.
8E\J	.	8e\J	.	.	.	.	.	.	.
=99	=99	=99	=99	=99	=99	=99	=99	=99	=99
8F#\	.	8f#\	.	4a/	.	8a\L	.	8a'\L	-sti
!	!	!	!	!	!	!LO:SIC:o:s=:v:niejednoznaczny zapis łuku	!	!	!
8r	.	8r	.	.	.	(16b\L	f	(16b\L	.
.	.	.	.	.	.	16cc#\	.	16cc#\	.
8r	.	8r	.	(16b/LL	.	16dd\	.	16dd\	.
.	.	.	.	16cc#/JJ)	.	16ee\JJ)	.	16ee\JJ)	.
=100	=100	=100	=100	=100	=100	=100	=100	=100	=100
!	!	!	!	!	!	!LO:SIC:o:s=:v:niejednoznaczny zapis łuku	!	!	!
4D\	.	4d\	.	(16dd\LL	.	(16ff#\LL	.	16ff#\LL	.
.	.	.	.	16ee\	.	16gg#\	.	16gg#\	.
.	.	.	.	16ff#\	.	16aa\	.	16aa\	.
.	.	.	.	16dd\	.	16ff#\	.	16ff#\	.
8r	.	8r	.	16cc#\	.	16ee\	.	16ee\	.
.	.	.	.	16b\JJ)	.	16dd\JJ)	.	16dd\JJ	.
!	!	!LO:LB:g=original	!	!	!	!	!	!	!
=101	=101	=101	=101	=101	=101	=101	=101	=101	=101
.	.	.	.	.	.	8qqcc#/	.	.	.
4.E;\	.	4.e;\	.	4.g#;/	.	4.b;\	.	4.b;\	.
=102	=102	=102	=102	=102	=102	=102	=102	=102	=102
!LO:SIC:o:s=:v:znak początku repetycji	!	!	!	!	!	!	!	!	!
8r	.	8r	.	4aa\	.	4cc#\	p	4cc#\	Sae-
!	!LO:DY:t=p&colon;	!	!	!	!	!	!	!	!
8A\L	p	8e\L	.	.	.	.	.	.	.
!LO:TX:a:t=bis	!	!	!	!	!	!	!	!	!
8E\J	.	8e\J	.	(16bb\LL	.	(16dd\LL	.	(16dd\LL	-vi-
.	.	.	.	16gg#\JJ)	.	16b\JJ)	.	16b\JJ)	.
=103	=103	=103	=103	=103	=103	=103	=103	=103	=103
.	.	.	.	.	.	8qqdd/	.	8qqdd/	.
8AA/	.	8e\	.	8aa\	.	16cc#\LL	.	16cc#\LL	-en-
.	.	.	.	.	.	16b\J	.	16b\J	.
8r	.	8r	.	8r	.	8a\J	.	8a\J	.
!LO:SIC:o:s=:v:znak końca repetycji	!	!	!	!	!	!LO:N:vis=4	!	!	!
8r	.	8r	.	8r	.	8e/	.	8e/	-tis
!	!	!	!	!	!	!	!	!LO:LB:g=original	!
=104	=104	=104	=104	=104	=104	=104	=104	=104	=104
!LO:SIC:o:s=:v:powtórzenie tt. 102-103 oznaczone znakami repetycji adnotacja "bis"	!	!	!	!	!	!	!	!	!
8ryy	.	8r	.	4aa\	.	4cc#\	.	4cc#\	Sae-
8A\Lyy	.	8e\L	.	.	.	.	.	.	.
8E\Jyy	.	8e\J	.	(16bb\LL	.	16dd\LL	.	16dd\LL	-vi-
.	.	.	.	16gg#\JJ)	.	16b\JJ	.	16b\JJ	.
!	!	!	!	!LO:LB:g=original	!	!LO:LB:g=original	!	!	!
=105	=105	=105	=105	=105	=105	=105	=105	=105	=105
8AA/yy	.	8e\	.	8aa\	.	16cc#\LL	.	16cc#\LL	-en-
.	.	.	.	.	.	16b\J	.	16b\JJ	.
8ryy	.	8r	.	8r	.	8a\J	.	8a\	-tis
8r	.	8r	.	8e/	.	8e/	.	8e/	.
!LO:TX:b:t=Verte	!	!	!	!	!	!	!	!	!
!LO:LB:g=original	!	!	!	!	!	!	!	!	!
=106	=106	=106	=106	=106	=106	=106	=106	=106	=106
!	!	!	!	!	!	!LO:SIC:o:s=:v:niejednoznaczny zapis łuku	!	!	!
8r	.	8r	.	(8a\L	.	(8cc#\L	.	8cc#\L	cae-
8d\L	.	8a\L	.	8ff#\	.	8ff#\	.	8ff#\	.
8c#\J	.	8a\J	.	8ee\J)	.	8ee\J)	.	8ee\J	.
=107	=107	=107	=107	=107	=107	=107	=107	=107	=107
!	!	!	!	!	!	!	!	!LO:N:vis=4	!
4.B;\	.	4.b;\	.	4.dd;\	.	4.gg#;\	.	4.dd;\	-de
=108	=108	=108	=108	=108	=108	=108	=108	=108	=108
8G#\	.	8e\	.	8dd\	.	8bb\	.	8r	.
8r	.	8r	.	8r	.	8r	.	(16ff#\LL	cae-
.	.	.	.	.	.	.	.	16dd\JJ)	.
8r	.	8r	.	8r	.	8r	.	(16cc#\LL	-de
.	.	.	.	.	.	.	.	16b\JJ)	.
=109	=109	=109	=109	=109	=109	=109	=109	=109	=109
8A\	.	8e\	.	8cc#\	.	8ee\	.	8r	.
8r	.	8r	.	8r	.	8r	.	(16ee\LL	tri-
.	.	.	.	.	.	.	.	16cc#\JJ)	.
8r	.	8r	.	8r	.	8r	.	(16b\LL	-sti
.	.	.	.	.	.	.	.	16a\JJ)	.
!	!	!LO:LB:g=original	!	!	!	!	!	!	!
=110	=110	=110	=110	=110	=110	=110	=110	=110	=110
8D\L	.	8f#\L	.	8b/	.	8dd\	.	8b\	Fu-
8E\	.	8e\	.	4g#/	.	4b\	.	4g#\	-gis
8E\J	.	8e\J	.	.	.	.	.	.	.
=111	=111	=111	=111	=111	=111	=111	=111	=111	=111
!	!	!	!	!LO:TUP:a:problem=klamra łukowa	!	!LO:TUP:a:problem=klamra łukowa nieoznaczona	!	!	!
8r	.	8a\L	.	24cc#\LL	.	24cc#\LL	.	8a\	Fu-
.	.	.	.	24b\	.	24b\	.	.	.
.	.	.	.	24a\JJ	.	24a\JJ	.	.	.
8A\L	.	8a\	.	8a/L	.	8a/L	.	8a\	-gis
!	!	!	!	!LO:TX:a:t=90	!	!	!	!	!
8G#\J	.	8g#\J	.	8a/J	.	8a/J	.	8a\	e-
!	!	!	!	!	!	!	!	!LO:LB:g=original	!
=112	=112	=112	=112	=112	=112	=112	=112	=112	=112
8F#\L	.	8f#\L	.	8a/	.	8a/	.	4.a\	-xul
!	!	!	!	!LO:TUP:a:problem=klamra łukowa	!	!LO:TUP:a:problem=klamra łukowa nieoznaczona	!	!	!
8E\	.	8e\	.	24cc#\LL	.	24cc#\LL	.	.	.
.	.	.	.	24b\	.	24b\	.	.	.
.	.	.	.	24a\JJ	.	24a\JJ	.	.	.
!	!	!	!	!LO:TUP:a:problem=klamra łukowa	!	!LO:TUP:a:problem=klamra łukowa nieoznaczona	!	!	!
8D\J	.	8d\J	.	24cc#\LL	.	24cc#\LL	.	.	.
.	.	.	.	24b\	.	24b\	.	.	.
.	.	.	.	24a\JJ	.	24a\JJ	.	.	.
!	!	!	!	!LO:LB:g=original	!	!LO:PB:g=original	!	!	!
=113	=113	=113	=113	=113	=113	=113	=113	=113	=113
4C#/	.	4e\	.	8aa\L	f	8aa\L	f	8aa\	e-
.	.	.	.	(16gg#\L	.	(16gg#\L	.	16gg#\LL	-xul
.	.	.	.	16ff#\	.	16ff#\	.	16ff#\JJ	.
8BB/	.	8g#\	.	16ee\	.	16ee\	.	16ee\LL	.
.	.	.	.	16dd\JJ)	.	16dd\JJ)	.	16dd\JJ	.
=114	=114	=114	=114	=114	=114	=114	=114	=114	=114
!LO:TX:a:t=P:problem=mixed beam	!	!LO:TX:a:t=P:problem=mixed beam	!	!LO:TUP:a:problem=klamra łukowa nieoznaczona	!	!LO:TUP:a:problem=klamra łukowa	!	!	!
8AA/L	.	8a\L	.	24cc#\LL	.	24cc#\LL	.	16cc#\LL	Pa-
.	.	.	.	24dd\	.	24dd\	.	.	.
.	.	.	.	.	.	.	.	16dd\JJ	.
.	.	.	.	24ee\JJ	.	24ee\JJ	.	.	.
.	.	.	.	8qqa/	.	8qqa/	.	.	.
8E\	.	8e\	.	4g#/	.	4g#/	.	8.b\	.
8EE/J	.	8E/J	.	.	.	.	.	.	.
.	.	.	.	.	.	.	.	16b\	-tri-
!LO:LB:g=original	!	!	!	!	!	!	!	!	!
=115	=115	=115	=115	=115	=115	=115	=115	=115	=115
!LO:TX:a:t=P:problem=mixed beam	!	!LO:TX:a:t=P:problem=mixed beam	!	!	!	!LO:SIC:o:s=:v:niejednoznaczny zapis łuków w t. 115	!	!	!
!	!	!	!	!	!	!	!LO:DY:t=fortis	!	!
8AA/L	f	8A/L	.	32cc#\KLL	f	(32cc#\KLL	f	4.a\	-a
.	.	.	.	16.a\JJ	.	16.a\JJ)	.	.	.
8A\	.	8a\	.	32ee\KLL	.	(32ee\KLL	.	.	.
.	.	.	.	16.cc#\JJ	.	16.cc#\JJ)	.	.	.
8C#/J	.	8c#/J	.	32aa\KLL	.	32aa\KLL	.	.	.
.	.	.	.	16.ee\JJ	.	16.ee\JJ	.	.	.
=116	=116	=116	=116	=116	=116	=116	=116	=116	=116
!	!	!	!	!	!	!	!	!LO:TX:a:t=11	!
!	!	!	!	!	!	!	!	!LO:N:vis=00	!
4.D\	.	4f#\	.	(32ff#\LLL	.	(32ff#\LLL	.	1.r	.
.	.	.	.	32ee\J)	.	32ee\J)	.	.	.
.	.	.	.	16dd\JJ	.	16dd\JJ	.	.	.
.	.	.	.	8ddd\	.	8ddd\	.	.	.
!	!	!LO:TX:a:t=Vi-	!	!	!	!	!	!	!
.	.	8dd\	.	16ccc#\LL	.	16ccc#\LL	.	.	.
.	.	.	.	16bb\JJ	.	16bb\JJ	.	.	.
!	!	!LO:SIC:o:S=:v:wykreśłone takty	!	!	!	!	!	!	!
=117	=117	=117	=117	=117	=117	=117	=117	=117	=117
!	!	!LO:TX:a:t=-de	!	!	!	!	!	!	!
.	.	.	.	8qqaa/	.	8qqaa/	.	.	.
4.E\	.	4.b\	.	4.gg#\	.	4.gg#\	.	.	.
=118	=118	=118	=118	=118	=118	=118	=118	=118	=118
!LO:SIC:o:s=:v:znak początku repetycji	!	!	!	!	!	!	!	!	!
8r	.	8a\L	.	4aa\	.	4ccc#\	.	.	.
8A\L	.	8e\	.	.	.	.	.	.	.
!LO:TX:a:t=bis	!	!	!	!	!	!	!	!	!
8E\J	.	8e\J	.	16bb\LL	.	16ddd\LL	.	.	.
.	.	.	.	16gg#\JJ	.	16bb\JJ	.	.	.
!	!	!	!	!LO:LB:g=original	!	!	!	!	!
=119	=119	=119	=119	=119	=119	=119	=119	=119	=119
8AA/	.	8e\	.	16aa\LL	.	16ccc#\LL	.	.	.
.	.	.	.	16gg#\JJ	.	16bb\J	.	.	.
8r	.	8r	.	8aa\L	.	8aa\	.	.	.
!LO:SIC:o:s=:v:znak końca repetycji	!	!	!	!	!	!	!	!	!
8r	.	8r	.	8ee\J	.	8ee\J	.	.	.
!	!	!	!	!	!	!LO:LB:g=original	!	!	!
=120	=120	=120	=120	=120	=120	=120	=120	=120	=120
!LO:SIC:o:s=:v:powtórzenie tt. 118-119 oznaczone znakami repetycji adnotacja "bis"	!	!	!	!	!	!	!	!	!
!	!	!	!	!	!	!	!	!LO:N:vis=00	!
8ryy	.	8r	.	4aa\	.	4ccc#\	.	1.r	.
8A\Lyy	.	8e\L	.	.	.	.	.	.	.
8E\Jyy	.	8e\J	.	16bb\LL	.	16ddd\LL	.	.	.
.	.	.	.	16gg#\JJ	.	16bb\JJ	.	.	.
=121	=121	=121	=121	=121	=121	=121	=121	=121	=121
!	!	!	!	!	!	!LO:TUP:a:problem=klamra łukowa nieoznaczona	!	!	!
8AA/yy	.	8e\	.	(16aa\LL	.	24ccc#\LL	.	.	.
.	.	.	.	.	.	24bb\	.	.	.
.	.	.	.	16gg#\J)	.	.	.	.	.
.	.	.	.	.	.	24aa\JJ	.	.	.
!	!	!	!	!	!	!LO:N:vis=8	!	!	!
8ryy	.	8r	.	8aa\J	.	4e/	.	.	.
8ryy	.	8r	.	8e/	.	.	.	.	.
=122	=122	=122	=122	=122	=122	=122	=122	=122	=122
8r	.	8r	.	4a/	.	4cc#\	.	.	.
8A\L	.	8e\L	.	.	.	.	.	.	.
8E\J	.	8e\J	.	(16b/LL	.	(16dd\LL	.	.	.
.	.	.	.	16g#/JJ)	.	16b\JJ)	.	.	.
=123	=123	=123	=123	=123	=123	=123	=123	=123	=123
!LO:TX:a:t=P:problem=mixed beam	!	!	!	!LO:TUP:a:problem=klamra łukowa	!	!LO:TUP:a:problem=klamra łukowa	!	!	!
8AA/L	.	8e\L	.	24cc#\LL	.	24cc#\LL	.	.	.
.	.	.	.	24b\	.	24b\	.	.	.
.	.	.	.	24a\JJ	.	24a\JJ	.	.	.
8A\	.	8a\	.	8a'\L	.	8a'\L	.	.	.
8G#\J	.	8g#\J	.	8a'\J	.	8a'\J	.	.	.
=124	=124	=124	=124	=124	=124	=124	=124	=124	=124
!	!	!	!	!	!	!	!	!LO:N:vis=00	!
8F#\L	.	8f#\L	.	8a\	.	8a/	.	1.r	.
!	!	!	!	!LO:TUP:a:problem=klamra łukowa	!	!LO:TUP:a:problem=klamra łukowa	!	!	!
8E\	.	8e\	.	24cc#\LL	.	24cc#\LL	.	.	.
.	.	.	.	24b\	.	24b\	.	.	.
.	.	.	.	24a\JJ	.	24a\JJ	.	.	.
!	!	!	!	!LO:TUP:a:problem=klamra łukowa	!	!LO:TUP:a:problem=klamra łukowa	!	!	!
8D\J	.	8d\J	.	24cc#\LL	.	24cc#\LL	.	.	.
.	.	.	.	24b\	.	24b\	.	.	.
.	.	.	.	24a\JJ	.	24a\JJ	.	.	.
=125	=125	=125	=125	=125	=125	=125	=125	=125	=125
4C#/	.	4e\	.	8aa\L	.	8aa\L	.	.	.
.	.	.	.	(16gg#\L	.	(16gg#\L	.	.	.
.	.	.	.	16ff#\	.	16ff#\	.	.	.
8BB/	.	8g#\	.	16ee\	.	16ee\	.	.	.
.	.	.	.	16dd\JJ)	.	16dd\JJ)	.	.	.
!LO:LB:g=original	!	!	!	!LO:LB:g=original	!	!	!	!	!
=126	=126	=126	=126	=126	=126	=126	=126	=126	=126
!	!	!	!	!LO:TUP:a:problem=klamra łukowa	!	!LO:TUP:a:problem=klamra łukowa	!	!	!
8AA/L	.	8a\L	.	24cc#\LL	.	24cc#\LL	.	.	.
.	.	.	.	24dd\	.	24dd\	.	.	.
.	.	.	.	24ee\JJ	.	24ee\JJ	.	.	.
.	.	.	.	.	.	8qqa/	.	.	.
8E/	.	8e\	.	4g#/	.	4g#/	.	.	.
8EE/J	.	8d\J	.	.	.	.	.	.	.
!	!	!	!	!	!	!LO:LB:g=original	!	!	!
=127	=127	=127	=127	=127	=127	=127	=127	=127	=127
!	!	!	!	!	!	!	!	!LO:SIC:o:s=:v:brak t. 127	!
4AA/	.	4c#\	.	8a/L	.	8a/L	.	.	.
.	.	.	.	8A/J	.	8A/J	.	.	.
!	!	!LO:TX:a:t=Re-	!	!	!	!	!	!	!
!LO:SIC:o:s=:v:kreska taktowa początek/koniec repetycji	!	!	!	!LO:TX:a:t=106	!	!	!	!	!
8r	.	8r	.	8r	.	8r	.	.	.
!	!	!	!	!	!	!	!	!LO:TX:a:t=Verta	!
!	!	!	!	!	!	!	!	!LO:LB:g=original	!
=128||	=128||	=128:||:	=128||	=128:||:	=128||	=128||	=128||	=128:||:	=128||
!LO:TX:a:t=P:problem=mixed beam	!LO:DY:t=p&colon;	!LO:TX:a:t=-tro	!LO:DY:t=p.	!	!LO:DY:t=p&colon;	!	!	!	!
8F#\L	p	8A/L	p	4f#/	p	4f#/	.	8f#/L	O
8FF#/J	.	8F#/J	.	.	.	.	.	8a/J	.
!	!	!	!	!	!	!LO:TUP:a:problem=klamra łukowa	!	!	!
8r	.	8r	.	8f#/	.	24a/LL	p	8cc#\	Re-
.	.	.	.	.	.	24b/	.	.	.
.	.	.	.	.	.	24cc#/JJ	.	.	.
=129	=129	=129	=129	=129	=129	=129	=129	=129	=129
.	.	.	.	.	.	8qqcc#/	.	.	.
8G#\L	.	4g#\	.	(8f#/L	.	4b/	.	4b\	-gi-
8C#\	.	.	.	8e#X/	.	.	.	.	.
8F#\J	.	8f#\	.	8f#/J)	.	8a/	.	8a\	-na
=130	=130	=130	=130	=130	=130	=130	=130	=130	=130
8BB/	.	8f#\L	.	8d/L	.	(8g#/L	.	8g#\L	Be-
4C#/	.	8f#\	.	8c#/	.	8a/	.	8a\J	.
.	.	.	.	.	.	.	.	16qqg#/LL	.
.	.	.	.	.	.	.	.	16qqa/JJ	.
.	.	8e#X\J	.	8g#/J	.	8b/J)	.	8b\	-a-
=131	=131	=131	=131	=131	=131	=131	=131	=131	=131
8r	.	4f#\	.	8g#/L	.	8b/L	.	8b\	-to-
!LO:TX:a:t=P:problem=mixed beam	!	!	!	!	!	!	!	!	!
8F#\L	.	.	.	8f#/J	.	8a/J	.	8a\	-ru(m)
8AA/J	.	8A/	.	8r	.	8r	.	8r	.
=132	=132	=132	=132	=132	=132	=132	=132	=132	=132
!	!	!	!	!	!	!LO:TX:a:t=P:problem=mixed beam	!	!	!
8BB/	.	8B/	.	8dd\L	.	(8dd\L	.	(8dd\L	O
4C#/	.	4c#/	.	8cc#\	.	8cc#\	.	8cc#\J)	.
.	.	.	.	8e#X\J	.	8e#X/J)	.	8e#X/	Re-
=133	=133	=133	=133	=133	=133	=133	=133	=133	=133
!	!	!	!	!	!	!LO:SIC:s=:v:8qe#	!	!	!
.	.	.	.	.	.	8qqe/	.	.	.
8r	.	8r	.	4.f#/	.	4.f#/	.	16f#/LL	-gi-
.	.	.	.	.	.	.	.	16e#X/JJ	.
8D\L	.	8d\L	.	.	.	.	.	4f#/	-na
8AA\J	.	8A\J	.	.	.	.	.	.	.
!	!	!LO:LB:g=original	!	!LO:LB:g=original	!	!	!	!	!
=134	=134	=134	=134	=134	=134	=134	=134	=134	=134
!	!	!	!	!	!	!LO:TX:a:t=P:problem=mixed beam	!	!LO:SIC:o:s=:v:niejednoznaczny zapis artykulacji	!
8BB/	.	8B/	.	8dd\L	.	8dd\L	.	8dd`\L	Re-
4C#/	.	4c#/	.	8cc#\	.	8cc#\	.	(8cc#\J	.
.	.	.	.	8e#X\J	.	8e#X/J	.	8e#X/)	-gi-
!	!	!	!	!	!	!LO:LB:g=original	!	!LO:LB:g=original	!
=135	=135	=135	=135	=135	=135	=135	=135	=135	=135
!	!	!	!	!	!	!LO:SIC:s=:v:8qe#	!	!	!
.	.	.	.	.	.	8qqe/	.	.	.
4D/	.	4d\	.	4.f#/	f	4f#/	.	4f#/	-na
8r	.	8r	.	.	.	8ff#\	f	8ff#\	Re-
!LO:LB:g=original	!	!	!	!	!	!	!	!	!
=136	=136	=136	=136	=136	=136	=136	=136	=136	=136
!	!	!	!	!	!LO:DY:t=p&colon;	!	!	!	!
4E\	f	4.gn\	.	4.gn/	p	8ff#\	.	8ff#\L	-gi-
!	!	!	!	!	!	!LO:SIC:o:s=:v:niejednoznaczny zapis łuku	!	!	!
.	.	.	.	.	.	(16ee\LL	p	16ee\L	-na
.	.	.	.	.	.	16dd\	.	16dd\JJ	.
8E\	.	.	.	.	.	16cc#\	.	16cc#\	Be-
.	.	.	.	.	.	16b\JJ)	.	16b\	-a-
=137	=137	=137	=137	=137	=137	=137	=137	=137	=137
!LO:TX:a:t=P:problem=mixed beam	!LO:DY:t=p&colon;	!LO:TX:a:t=P:problem=mixed beam	!LO:DY:t=p&colon;	!	!	!	!	!	!
8F#\L	p	8f#\L	p	4c#/	.	8b/L	.	8b\L	-to-
8FF#/	.	8F#/	.	.	.	8a#X/J	.	8a#X\J	-rum
8FF#/J	.	8F#/J	.	8r	.	8r	.	8r	.
=138	=138	=138	=138	=138	=138	=138	=138	=138	=138
!LO:SIC:o:s=:v:znak początku repetycji	!	!	!	!	!	!	!	!	!
8r	.	8r	.	4b\	.	4dd\	.	4dd\	Be-
8B\L	.	8f#\L	.	.	.	.	.	.	.
!LO:TX:a:t=bis	!	!	!	!	!	!	!	!	!
8F#\J	.	8f#\J	.	(16cc#\LL	.	(16ee\LL	.	16ee\LL	-a-
.	.	.	.	16a#X\JJ)	.	16cc#\JJ)	.	16cc#\JJ	.
=139	=139	=139	=139	=139	=139	=139	=139	=139	=139
.	.	.	.	.	.	16qqee/	.	.	.
8BB/	.	8f#\	.	8b\	.	16dd\LL	.	16dd\LL	-to-
.	.	.	.	.	.	16cc#\J	.	16cc#\JJ	.
8r	.	8r	.	8r	.	8b\J	.	8b\	-rum
!LO:SIC:o:s=:v:znak końca repetycji	!	!	!	!	!	!	!	!	!
8r	.	8r	.	8r	.	8f#/	.	8r	.
=140	=140	=140	=140	=140	=140	=140	=140	=140	=140
8ryy	.	8r	.	4bb\	.	4dd\	.	4dd\	Be-
!LO:SIC:o:s=:v:powtórzenie tt. 138-139 oznaczone znakami repetycji adnotacja "bis"	!	!	!	!	!	!	!	!	!
8B\Lyy	.	8f#\L	.	.	.	.	.	.	.
8F#\Jyy	.	8f#\J	.	16ccc#\LL	.	(16ee\LL	.	16ee\LL	-a-
.	.	.	.	16aa#X\JJ	.	16cc#\JJ)	.	16cc#\JJ	.
=141	=141	=141	=141	=141	=141	=141	=141	=141	=141
.	.	.	.	.	.	16qqee/	.	.	.
8BB/yy	.	8f#\	.	8bb\	.	16dd\LL	.	16dd\LL	-to-
.	.	.	.	.	.	16cc#\J	.	16cc#\JJ	.
8ryy	.	8r	.	8r	.	8b\J	.	8b\	-rum
8ryy	.	8r	.	8r	.	8f#/	.	8r	.
!	!	!LO:LB:g=original	!	!	!	!	!	!LO:LB:g=original	!
=142	=142	=142	=142	=142	=142	=142	=142	=142	=142
8B\L	.	8f#\L	.	8r	.	(8dd\L	.	8dd\L	nos-
8G#\	.	8e\	.	8bb\L	.	8ee\	.	8ee\	.
8E\J	.	8e\J	.	8gg#\J	.	8dd\J)	.	8dd\J	.
!	!	!	!	!	!	!LO:LB:g=original	!	!	!
=143	=143	=143	=143	=143	=143	=143	=143	=143	=143
!	!	!	!	!	!	!	!	!LO:SIC:o=:v:-tri	!
4.A\	.	4.e\	.	4.aa\	.	8dd\L	.	8dd\	-ti
.	.	.	.	.	.	8cc#\	.	8cc#\	spes
.	.	.	.	.	.	[<8cc#\J	.	8cc#\	.
!	!	!	!	!LO:LB:g=original	!	!	!	!	!
=144	=144	=144	=144	=144	=144	=144	=144	=144	=144
4.F#\	.	4.f#\	.	4.aa\	.	16cc#\LL]	.	16cc#\LL	e-
.	.	.	.	.	.	16ee\J	.	16ee\JJ	.
.	.	.	.	.	.	8dd#X\	.	8dd#X\L	.
.	.	.	.	.	.	8cc#\J	.	8cc#\J	-xi-
=145	=145	=145	=145	=145	=145	=145	=145	=145	=145
!LO:TX:a:t=P:problem=mixed beam	!	!LO:TX:a:t=P:problem=mixed beam	!	!	!	!	!	!	!
8G#\L	.	8g#\L	.	8ee\L	.	8cc#\L	.	8cc#\	-lij
8GG#/	.	8G#/	.	8dd#X\J	.	8b#X\J	.	8b#X\	.
8GG#/J	.	8G#/J	.	8r	.	8r	.	8r	.
=146	=146	=146	=146	=146	=146	=146	=146	=146	=146
!LO:SIC:o:s=:v:znak początku repetycji	!	!	!	!	!	!.	!	!	!
!	!	!	!	!	!	!	!LO:DY:t=pocofor.	!	!
8r	.	8r	.	4cc#\	f	4ee\	f	4ee\	fac
8c#\L	.	8g#\L	.	.	.	.	.	.	.
!LO:TX:a:t=bis	!	!	!	!	!	!	!	!	!
8G#\J	.	8g#\J	.	(16dd#X\LL	.	16ff#\LL	.	16ff#\LL	in-
.	.	.	.	16b#X\JJ)	.	16dd#X\JJ	.	16dd#X\JJ	.
=147	=147	=147	=147	=147	=147	=147	=147	=147	=147
.	.	.	.	.	.	8qqff#/	.	8qqff#/	.
4C#/	.	8g#\	.	8cc#\	.	16ee\LL	.	16ee\LL	-fra-
!	!	!	!	!	!	!	!	!LO:SIC:s=:v:16dd#	!
.	.	.	.	.	.	16dd#X\J	.	16dd\J	.
.	.	8r	.	8r	.	8cc#\J	.	8cc#\J	.
!LO:SIC:o:s=:v:znak końca repetycji	!	!	!	!	!	!	!	!	!
8r	.	8r	.	8r	.	8g#/	.	8g#\	-ctus
!	!	!	!	!	!	!	!	!LO:LB:g=original	!
=148	=148	=148	=148	=148	=148	=148	=148	=148	=148
!	!	!	!	!	!LO:DY:t=p&colon;	!	!	!	!
8ryy	.	8r	.	4cc#\	p	4ee\	p	4ee\	fac
!LO:SIC:o:s=:v:powtórzenie tt. 146-147 oznaczone znakami repetycji adnotacja "bis"	!	!	!	!	!	!	!	!	!
8c#\Lyy	.	8g#\L	.	.	.	.	.	.	.
8G#\Jyy	.	8g#\J	.	(16dd#X\LL	.	16ff#\LL	.	16ff#\LL	in-
!	!	!	!	!	!	!	!	!LO:SIC:s=:v:16dd#	!
.	.	.	.	16b#X\JJ)	.	16dd#X\JJ	.	16dd\JJ	.
=149	=149	=149	=149	=149	=149	=149	=149	=149	=149
.	.	.	.	.	.	.	.	8qqff#/	.
4C#/yy	.	8g#\	.	8cc#\	.	16ee\LL	.	16ee\LL	-fra-
.	.	.	.	.	.	16dd#X\J	.	16dd\J	.
.	.	8r	.	8r	.	8cc#\J	.	8cc#\J	.
8ryy	.	8r	.	8r	.	8g#/	.	8g#\	-ct(us)
!	!	!LO:LB:g=original	!	!	!	!LO:LB:g=original	!	!	!
=150	=150	=150	=150	=150	=150	=150	=150	=150	=150
!	!	!	!	!	!	!	!	!LO:N:vis=4.	!
8r	.	8r	.	4cc#\	.	4ee\	.	4ee\	ut
8c#\L	.	8g#\L	.	.	.	.	.	.	.
8G#\J	.	8g#\J	.	(16dd#X\LL	.	16ff#\LL	.	16ff#\LL	ma-
.	.	.	.	16b#X\JJ)	.	16dd#X\JJ	.	16dd#X\JJ	.
!LO:LB:g=original	!	!	!	!LO:LB:g=original	!	!	!	!	!
=151	=151	=151	=151	=151	=151	=151	=151	=151	=151
8C#/L	.	8g#\	.	8cc#\	.	8ee\L	.	(16ee\LL	-lo-
.	.	.	.	.	.	.	.	16cc#\JJ)	.
8D#X/	.	8r	.	8r	.	8ff#\	.	(16ff#\LL	-rum
.	.	.	.	.	.	.	.	16dd#X\JJ)	.
8E/J	.	8r	.	8r	.	8gg#\J	.	(16gg#\LL	Fi-
.	.	.	.	.	.	.	.	16ee\JJ)	.
=152	=152	=152	=152	=152	=152	=152	=152	=152	=152
4F#\	.	4f#\	.	8ff#\L	.	8aa\L	.	16aa\LL	-am
.	.	.	.	.	.	.	.	32gg#\L	.
.	.	.	.	.	.	.	.	32ff#\JJJ	.
.	.	.	.	8ee\	.	8gg#\	.	16ee\LL	Con-
.	.	.	.	.	.	.	.	16dd#X\	.
8G#\	.	8g#\	.	8dd#X\J	.	8ff#\J	.	16cc#\	.
.	.	.	.	.	.	.	.	16b#X\JJ	.
=153	=153	=153	=153	=153	=153	=153	=153	=153	=153
4.A\	.	4.a\	f	8cc#'\L	.	8ee'\L	f	4.cc#\	-sors
.	.	.	.	8ee'\	.	8ccc#'\	.	.	.
.	.	.	.	8cc#'\J	.	8ee'\J	.	.	.
=154	=154	=154	=154	=154	=154	=154	=154	=154	=154
4.F#X\	.	4.f#X\	.	8cc#\L	.	8ee'\L	.	8r	.
.	.	.	.	8ee\	.	8ccc#'\	.	8r	.
.	.	.	.	8cc#\J	.	8ee'\J	.	8cc#\	Fi-
!	!	!	!	!	!	!	!	!LO:LB:g=original	!
=155	=155	=155	=155	=155	=155	=155	=155	=155	=155
4.G#;\	.	4.g#;\	.	4cc#;\	.	4ee;\	.	4cc#;\	.
.	.	.	.	8b#X\	.	8dd#X\	.	8dd#X\	-li-
=156	=156	=156	=156	=156	=156	=156	=156	=156	=156
!LO:TX:a:t=P:problem=mixed beam	!	!	!	!	!	!	!	!	!
8C#/L	.	8c#\L	.	4cc#\	.	4cc#\	.	4cc#\	-j
8c#\	.	8e\	.	.	.	.	.	.	.
8B\J	.	8g#\J	.	8r	.	8r	.	8r	.
=157	=157	=157	=157	=157	=157	=157	=157	=157	=157
!	!	!	!	!	!	!	!LO:DY:t=fortio	!LO:TX:a:t=8	!
!	!	!	!	!	!	!	!	!LO:N:vis=00	!
8A#X\L	.	8cc#\L	.	4ee\	.	4ee\	f	1.r	.
8G#\	.	8b\	.	.	.	.	.	.	.
8F#\J	.	8a#X\J	.	8ff#\	.	8ff#\	.	.	.
!	!	!	!	!	!	!LO:LB:g=original	!	!	!
=158	=158	=158	=158	=158	=158	=158	=158	=158	=158
.	.	.	.	.	.	8qqee/	.	.	.
4B\	.	4f#\	.	(16dd#X\LL	.	16dd#X\LL	.	.	.
.	.	.	.	16cc#\JJ)	.	16cc#\J	.	.	.
.	.	.	.	8b\L	.	8b\	.	.	.
8r	.	8r	.	8cc#\J	.	8cc#\J	.	.	.
!	!	!LO:LB:g=original	!	!LO:LB:g=original	!	!	!	!	!
=159	=159	=159	=159	=159	=159	=159	=159	=159	=159
8r	.	8r	.	4ddn\	.	4ddn\	.	.	.
8G#\L	.	8b\L	.	.	.	.	.	.	.
8E\J	.	8g#\J	.	(16ee\LL	.	16ee\LL	.	.	.
.	.	.	.	16b\JJ)	.	16b\JJ	.	.	.
=160	=160	=160	=160	=160	=160	=160	=160	=160	=160
!LO:TX:a:t=P:problem=mixed beam	!	!	!	!LO:TUP:a:problem=klamra łukowa	!	!LO:TUP:a:problem=klamra łukowa	!	!	!
8AA/L	.	8e\L	.	24cc#\LL	.	24cc#\LL	.	.	.
.	.	.	.	24b\	.	24b\	.	.	.
.	.	.	.	24a\JJ	.	24a\JJ	.	.	.
8A\	.	8a\	.	8a'/L	.	8a/L	.	.	.
8G#\J	.	8g#\J	.	8a'/J	.	8a/J	.	.	.
!LO:LB:g=original	!	!	!	!	!	!	!	!	!
=161	=161	=161	=161	=161	=161	=161	=161	=161	=161
!	!	!	!	!	!	!	!	!LO:N:vis=00	!
8F#\L	.	8f#\L	.	8a/	.	8a/	.	1.r	.
!	!	!	!	!LO:TUP:a:problem=klamra łukowa	!	!LO:TUP:a:problem=klamra łukowa	!	!	!
8E\	.	8e\	.	24cc#\LL	.	24cc#\LL	.	.	.
.	.	.	.	24b\	.	24b\	.	.	.
.	.	.	.	24a\JJ	.	24a\JJ	.	.	.
!	!	!	!	!LO:TUP:a:problem=klamra łukowa	!	!LO:TUP:a:problem=klamra łukowa	!	!	!
8D\J	.	8d\J	.	24cc#\LL	.	24cc#\LL	.	.	.
.	.	.	.	24b\	.	24b\	.	.	.
.	.	.	.	24a\JJ	.	24a\JJ	.	.	.
=162	=162	=162	=162	=162	=162	=162	=162	=162	=162
4C#/	.	4e\	.	8aa\L	.	8aa\L	.	.	.
.	.	.	.	(16gg#\L	.	(16gg#\L	.	.	.
.	.	.	.	16ff#\	.	16ff#\	.	.	.
8BB/	.	8g#\	.	16ee\	.	16ee\	.	.	.
.	.	.	.	16dd\JJ)	.	16dd\JJ)	.	.	.
=163	=163	=163	=163	=163	=163	=163	=163	=163	=163
!LO:TX:a:t=P:problem=mixed beam	!	!	!	!LO:TUP:a:problem=klamra łukowa	!	!LO:TUP:a:problem=klamra łukowa	!	!	!
8AA/L	.	8a\L	.	24cc#\LL	.	24cc#\LL	.	.	.
.	.	.	.	24dd\	.	24dd\	.	.	.
.	.	.	.	24ee\JJ	.	24ee\JJ	.	.	.
8E\	.	8e\	.	4g#/	.	4g#/	.	.	.
8EE/J	.	8d\J	.	.	.	.	.	.	.
=164	=164	=164	=164	=164	=164	=164	=164	=164	=164
!	!	!	!	!	!	!	!	!LO:SIC:o=:v:kreska taktowa wężowate segno	!
4AA/	.	4c#\	.	8a/L	.	8a/L	.	.	.
.	.	.	.	8A/J	.	8A/J	.	.	.
!LO:SIC:o:s=:v:kreska taktowa wężowate segno	!	!LO:SIC:o:s=:v:kreska taktowa wężowate segno	!	!LO:SIC:o:s=:v:kreska taktowa wężowate segno	!	!LO:SIC:o:s=:v:kreska taktowa wężowate segno	!	!	!
!	!	!	!	!LO:SIC:o:s=:v:niejednoznaczny zapis pod kreską taktową	!	!	!	!	!
8r	.	8r	.	8r	.	8r	.	.	.
!LO:TX:a:t=[segno]	!	!	!	!LO:TX:a:t=[segno]	!	!LO:TX:a:t=[segno]	!	!	!
!LO:TX:a:B:t=Dal Segno	!	!LO:TX:a:B:t=Dal\n Segno	!	!LO:TX:a:B:t=Dal\n Segno	!	!LO:TX:b:B:t=Da Capo A Signo	!	!LO:TX:a:t=[segno]	!
==	==	==	==	==	==	==	==	==	==
*-	*-	*-	*-	*-	*-	*-	*-	*-	*-
!!!system-decoration: s1,s2,s3,s4,s5
!!!RDF**dynam: p = pia.
!!!RDF**dynam: f = for.
!!!RDF**kern: > = above
!!!RDF**kern: < = below
!!!EED: Leszek Kubiak
!!!EEV: 2020-10-02
!!!ENC: Andrzej Kubiczek
!!!END: 2020-05-06
!!!YEC: Copyright 2022 Narodowy Instytut Fryderyka Chopina (https://polishscores.org)
!!!YEM: License CC-BY-4.0 (https://creativecommons.org/licenses/by/4.0)
